src/icons/svg/keshi.svg

<?xml version="1.0" standalone="no"?><!DOCTYPE svg PUBLIC "-//W3C//DTD SVG 1.1//EN" "http://www.w3.org/Graphics/SVG/1.1/DTD/svg11.dtd"><svg t="1597309894206" class="icon" viewBox="0 0 1024 1024" version="1.1" xmlns="http://www.w3.org/2000/svg" p-id="2436" xmlns:xlink="http://www.w3.org/1999/xlink" width="200" height="200"><defs><style type="text/css"></style></defs><path d="M802.22236455 62c82.95595488 0 153.14945449 57.43104521 153.14945449 134.00577247v657.26641054c0 57.43104521-51.04981846 102.09963691-114.86209042 102.09963603-19.14368203 0-44.66859082-6.38122763-57.4310461-12.76245439l-242.48663614-127.6245457c-12.7624544-6.38122763-31.90613643-6.38122763-38.28736406 0l-255.2490914 134.00577334c-57.43104521 25.52490879-127.6245457 12.7624544-159.53068214-31.90613643-19.14368203-25.52490879-25.52490879-44.66859082-25.52490878-63.81227285V196.00577247C62 119.43104521 132.19350049 62 215.14945449 62h587.07291006zM540.59204638 253.43681856H464.01731826c-19.14368203 0-38.28736406 19.14368203-38.28736318 38.28736318v63.81227285H355.53645459c-19.14368203 0-38.28736406 19.14368203-38.28736318 38.28736406v76.57472725c0 19.14368203 19.14368203 38.28736406 38.28736318 38.28736407h70.19350049v63.81227284c0 19.14368203 19.14368203 38.28736406 38.28736318 38.28736318h76.57472812c19.14368203 0 38.28736406-19.14368203 38.28736319-38.28736318V508.68590997h70.19350049c19.14368203 0 38.28736406-19.14368203 38.28736318-38.28736407V393.82381865c0-19.14368203-19.14368203-38.28736406-38.28736318-38.28736406H578.87940958v-63.81227285c0-19.14368203-19.14368203-38.28736406-38.2873632-38.28736319z" p-id="2437"></path></svg>

<svg class="icon" viewBox="0 0 1024 1024" xmlns="http://www.w3.org/2000/svg" width="200" height="200"><defs><style/></defs><path d="M802.222 62c82.956 0 153.15 57.431 153.15 134.006v657.266c0 57.431-51.05 102.1-114.862 102.1-19.144 0-44.669-6.381-57.431-12.763L540.592 814.985c-12.762-6.381-31.906-6.381-38.287 0L247.055 948.99c-57.43 25.525-127.624 12.762-159.53-31.907C68.38 891.56 62 872.416 62 853.272V196.006C62 119.43 132.194 62 215.15 62h587.072zm-261.63 191.437h-76.575c-19.143 0-38.287 19.144-38.287 38.287v63.812h-70.194c-19.143 0-38.287 19.144-38.287 38.288v76.575c0 19.143 19.144 38.287 38.287 38.287h70.194v63.812c0 19.144 19.144 38.288 38.287 38.288h76.575c19.144 0 38.287-19.144 38.287-38.288v-63.812h70.194c19.144 0 38.287-19.144 38.287-38.287v-76.575c0-19.144-19.143-38.288-38.287-38.288h-70.194v-63.812c0-19.144-19.143-38.287-38.287-38.287z"/></svg>
